public/avatar/item1/42.svg

<svg xmlns:xlink="http://www.w3.org/1999/xlink" height="65.4" width="80.15" xmlns="http://www.w3.org/2000/svg"><use height="8.5" transform="translate(21.25 30.7)" width="20.45" xlink:href="#a"/><defs><path d="m5.35 18.1 1 .1 1.2.2q2.9.9 2.5 2.85l-.3 1.05-.45 1.1-.55 1.65-.1.35q.1-.5-1.85-1l-1.35-.35-1.05-.9q-.85-.95-.7-2.25l.15-1.1-.35-.95-.6.15-.6.45-1.4.15-.6-.25-.4-.25-.45.25-.55.25-1.4-.15-.65-.4-.55-.2q-.3.3-.4.95l.2 1.1q.1 1.45-.75 2.3l-1.05.85-1.35.4q-1.9.35-1.85.95l-.1-.35q0-.25-.15-.55l-.85-2.2-.3-1.05q-.35-1.9 2.55-2.8l1.2-.25 1-.1 1.2-.2.8-.8 1.4-.2 1.35.25.7.45q.5-.4.7-.45l1.35-.25 1.4.2.75.75 1.25.25" fill="#020100" fill-rule="evenodd" transform="translate(10.35 -16.9)" id="a"/></defs></svg>

<?xml version="1.0" encoding="UTF-8" standalone="no"?>
<svg xmlns:xlink="http://www.w3.org/1999/xlink" height="65.4px" width="80.15px" xmlns="http://www.w3.org/2000/svg">
  <g transform="matrix(1.0, 0.0, 0.0, 1.0, 31.6, 13.8)">
    <use height="8.5" transform="matrix(1.0, 0.0, 0.0, 1.0, -10.35, 16.9)" width="20.45" xlink:href="#shape0"/>
  </g>
  <defs>
    <g id="shape0" transform="matrix(1.0, 0.0, 0.0, 1.0, 10.35, -16.9)">
      <path d="M5.35 18.1 L6.35 18.2 7.55 18.4 Q10.45 19.3 10.05 21.25 L9.75 22.3 9.3 23.4 8.75 25.05 8.65 25.4 Q8.75 24.9 6.8 24.4 L5.45 24.05 4.4 23.15 Q3.55 22.2 3.7 20.9 L3.85 19.8 3.5 18.85 2.9 19.0 2.3 19.45 0.9 19.6 0.3 19.35 -0.1 19.1 -0.55 19.35 -1.1 19.6 -2.5 19.45 -3.15 19.05 -3.7 18.85 Q-4.0 19.15 -4.1 19.8 L-3.9 20.9 Q-3.8 22.35 -4.65 23.2 L-5.7 24.05 -7.05 24.45 Q-8.95 24.8 -8.9 25.4 L-9.0 25.05 Q-9.0 24.8 -9.15 24.5 L-10.0 22.3 -10.3 21.25 Q-10.65 19.35 -7.75 18.45 L-6.55 18.2 -5.55 18.1 -4.35 17.9 -3.55 17.1 -2.15 16.9 -0.8 17.15 -0.1 17.6 Q0.4 17.2 0.6 17.15 L1.95 16.9 3.35 17.1 4.1 17.85 5.35 18.1" fill="#020100" fill-rule="evenodd" stroke="none"/>
    </g>
  </defs>
</svg>
